X: 1
T: String Quartet in C Major opus 50 no 2 mvt 3
C: Franz Joseph Haydn
%%abc-version 2.0
%%abcx-abcm2ps-target-version 5.9.1 (29 Sep 2008)
%%abc-creator hum2abc beta
%%abcx-conversion-date 2021/02/14 14:38:27
%%abc-copyright Copyright (c) 1994, 2000 Center for Computer Assisted Research in the Humanities
%%abc-edited-by Frances Bennion
%%abcx-initial-encoding-date 1997/04/15
%%gracespace 0 6 6
%%humdrum-veritas 724079913
%%humdrum-veritas-data 2693346146
%%linebreak <none>
%%barnumbers 0
L: 1/4
M: 3/4
N: Derived from op50n2-03.krn
Q: "Menuetto: Allegretto"
%%staves [1 2 3 4]
V: 1
V: 2
V: 3 clef=alto
V: 4 clef=bass
K: C
[V:1]z2 G [I:setbarnb1] |
[V:2]z2 z |
[V:3]z2 z |
[V:4]z2 z |
[V:1]g e c |
[V:2]z3 |
[V:3]z3 |
[V:4]z3 |
[V:1]G3- |
[V:2]z E F |
[V:3]z3 |
[V:4]z ^C D |
[V:1]G2 c |
[V:2]D E ^F |
[V:3]z2 A |
[V:4]B, C A, |
[V:1]e d G |
[V:2]G z2 |
[V:3]c B z |
[V:4]G,2 z |
[V:1]a f d |
[V:2]z3 |
[V:3]z3 |
[V:4]z3 |
[V:1]B2 c |
[V:2]z _A G/c/ |
[V:3]z F E |
[V:4]z3 |
[V:1]d _e B |
[V:2]c2 F- |
[V:3]A,2 G, |
[V:4]F, ^F, G, |
[V:1]d c G |
[V:2]F E z |
[V:3]B, C z |
[V:4]C,2 z |
[V:1]_b g e |
[V:2]z3 |
[V:3]z3 |
[V:4]z3 |
[V:1]^c2 d |
[V:2]z _B A |
[V:3]z G F |
[V:4]z3 |
[V:1]e a g |
[V:2]^c A c |
[V:3]E ^C E |
[V:4]z3 |
[V:1]f e z |
[V:2]d ^c z |
[V:3]D A, z |
[V:4]z2 A,, |
[V:1]z2 f |
[V:2]z2 ^G |
[V:3]z2 D |
[V:4]A, F, D, |
[V:1]e ^c z |
[V:2]A z2 |
[V:3]E z2 |
[V:4]^C, A,, G,, |
[V:1]z2 ^c' |
[V:2]z2 _B |
[V:3]z2 G |
[V:4]_B, G, E, |
[V:1]d' a f |
[V:2]A3 |
[V:3]F d d |
[V:4]F,3 |
[V:1]e g ^c |
[V:2]_B2 G |
[V:3]d z ^c |
[V:4]G,2 A, |
[V:1]e3 |
[V:2]G3 |
[V:3]^c3 |
[V:4]_B,3- |
[V:1]d2 z |
[V:2]F2 z |
[V:3]d2 z |
[V:4]B,3 |
[V:1]z2 F |
[V:2]z3 |
[V:3]z3 |
[V:4]z3 |
[V:1]a f d |
[V:2]z3 |
[V:3]z3 |
[V:4]z3 |
[V:1]A3- |
[V:2]z ^F G |
[V:3]z ^D E |
[V:4]z3 |
[V:1]A2 F |
[V:2]E F z |
[V:3]^C D z |
[V:4]z3 |
[V:1]a f d |
[V:2]z3 |
[V:3]z3 |
[V:4]z3 |
[V:1]g e c |
[V:2]z3 |
[V:3]z3 |
[V:4]z3 |
[V:1]G3- |
[V:2]z E F |
[V:3]z3 |
[V:4]z ^C D |
[V:1]G2 c |
[V:2]D E ^F |
[V:3]z2 A |
[V:4]B, C A, |
[V:1]e d G |
[V:2]G z2 |
[V:3]c B z |
[V:4]G,2 z |
[V:1]a f d |
[V:2]z3 |
[V:3]z3 |
[V:4]z3 |
[V:1]B2 c |
[V:2]z _A G/c/ |
[V:3]z F E |
[V:4]z3 |
[V:1]d _e B |
[V:2]c2 F- |
[V:3]A,2 G, |
[V:4]F, ^F, G, |
[V:1]d c z |
[V:2]F E z |
[V:3]B, A, z |
[V:4]^G, A, z |
[V:1]f a d |
[V:2]d f B |
[V:3]z3 |
[V:4]z3 |
[V:1]f e z |
[V:2]d c z |
[V:3]z3 |
[V:4]z3 |
[V:1]a c' ^f |
[V:2]e2 c- |
[V:3]z3 |
[V:4]C, A,, D, |
[V:1]a g z |
[V:2]c B z |
[V:3]z2 G, |
[V:4]G,,3- |
[V:1]z3 |
[V:2]z3 |
[V:3]G E C |
[V:4]G,,3- |
[V:1]z e f |
[V:2]z ^c d |
[V:3]G,3- |
[V:4]G,,3- |
[V:1]d e c |
[V:2]B c A |
[V:3]G,2 ^F, |
[V:4]G,,3- |
[V:1]e d z |
[V:2]c B z |
[V:3]G,2 G, |
[V:4]G,,3- |
[V:1]z3 |
[V:2]z3 |
[V:3]A F D |
[V:4]G,,3 |
[V:1]z a g |
[V:2]z f e |
[V:3]B,2 C |
[V:4][G,,2D,2] E, |
[V:1]f e d |
[V:2]d c B |
[V:3]A G F |
[V:4][F,G,,] [G,G,,] [G,G,,] |
[V:1]c z c |
[V:2]c z2 |
[V:3]E z2 |
[V:4]C, z2 |
[V:1]c' _a f |
[V:2][F3-c3] |
[V:3]_A,3 |
[V:4]_A,3 |
[V:1]e z c |
[V:2][cG] z2 |
[V:3]_B, z2 |
[V:4]G, z2 |
[V:1]c' _b g |
[V:2][G3-c3] |
[V:3]_B,3 |
[V:4]E,3 |
[V:1]_a z f |
[V:2][cA] z2 |
[V:3]C z2 |
[V:4]F, z2 |
[V:1]f' d' b |
[V:2][BD] z2 |
[V:3][FG,] z2 |
[V:4]G,, z2 |
[V:1]c' z2 |
[V:2][cE] z G |
[V:3][G,E] z2 |
[V:4]C,, z2 |
[V:1]z3 |
[V:2]c e g |
[V:3]E/G/ A/G/ E/G/ |
[V:4]C3 |
[V:1]z2 G |
[V:2]g z2 |
[V:3]D/G/ B/d/ B/G/ |
[V:4]B,3 |
[V:1]A c e |
[V:2]z3 |
[V:3]C/E/ F/E/ C/E/ |
[V:4]A,3 |
[V:1]e z2 |
[V:2]z2 E |
[V:3]B,/E/ G/B/ G/E/ |
[V:4]G,3 |
[V:1]z3 |
[V:2]F A c |
[V:3]A,/C/ D/C/ A,/C/ |
[V:4]F,3 |
[V:1]z2 c |
[V:2]c z2 |
[V:3]G,/C/ E/G/ E/C/ |
[V:4]E,3 |
[V:1]c' a ^f |
[V:2]z3 |
[V:3]A,/C/ D/^F/ A/c/ |
[V:4]D,3 |
[V:1]g z d |
[V:2]z2 B |
[V:3]B z2 |
[V:4]G,, z2 |
[V:1]f d f |
[V:2]d B d |
[V:3]z3 |
[V:4]G,/B,/ D/B,/ G,/B,/ |
[V:1]e z c' |
[V:2]c z e |
[V:3]z3 |
[V:4]G,/C/ E/G/ E/C/ |
[V:1]d' b d' |
[V:2]f d f |
[V:3]z3 |
[V:4]G,/B,/ D/B,/ G,/B,/ |
[V:1]c' z e |
[V:2]e z c |
[V:3]z3 |
[V:4]C/G,/ E,/C,/ E,/C,/ |
[V:1]f d f |
[V:2]d B d |
[V:3]G,/B,/ D/B,/ G,/B,/ |
[V:4]G,, z2 |
[V:1]e z e |
[V:2]c z c |
[V:3]G,/C/ E/C/ G,/C/ |
[V:4]G,, z2 |
[V:1]c' a ^f |
[V:2]A ^F A |
[V:3]A,/C/ D/C/ A,/C/ |
[V:4]G,, z2 |
[V:1]g z G |
[V:2]G z2 |
[V:3]B, z2 |
[V:4]G,, z2 |
[V:1]c e g |
[V:2]E/G/ A/G/ E/G/ |
[V:3]E3 |
[V:4]C3 |
[V:1]g z2 |
[V:2]D/G/ B/d/ z |
[V:3]D z2 |
[V:4]B, z2 |
[V:1]z2 G |
[V:2]z3 |
[V:3]z3 |
[V:4]z3 |
[V:1]c e g |
[V:2]E/G/ A/G/ E/G/ |
[V:3]C3 |
[V:4]z3 |
[V:1]g z2 |
[V:2]D/G/ B/d/ B/G/ |
[V:3]B, z2 |
[V:4]z3 |
[V:1]z3 |
[V:2]z3 |
[V:3]z3 |
[V:4]z3 |
[V:1]z3 |
[V:2]z3 |
[V:3]E,/G,/ A,/G,/ E,/G,/ |
[V:4]C,, E,, G,, |
[V:1]z2 G |
[V:2]z3 |
[V:3]D,/G,/ B,/D/ B,/G,/ |
[V:4]G,, z2 |
[V:1]c e g |
[V:2]E/G/ A/G/ E/G/ |
[V:3]G E C |
[V:4]C,3 |
[V:1]g e A |
[V:2]E/G/ A/e/ A/G/ |
[V:3]A G E |
[V:4]^C,3 |
[V:1]f d _B |
[V:2]F/A/ _B/A/ F/A/ |
[V:3]_B F D |
[V:4]D,3 |
[V:1]_b g c |
[V:2]G/_B/ c/g/ c/B/ |
[V:3]c _B G |
[V:4]E,3 |
[V:1]a f c |
[V:2]A/c/ f/a/ f/c/ |
[V:3]c A F |
[V:4]F,3 |
[V:1]c' a _e |
[V:2]A/c/ _e/^f/ a/c/ |
[V:3]_E C A, |
[V:4]^F,3 |
[V:1]e2 d/B/ |
[V:2]G/c/ e/g/ f/d/ |
[V:3]G,2 B,/D/ |
[V:4]G,3 |
[V:1]c z2 |]
[V:2]c z2 |]
[V:3]E z2 |]
[V:4]C, z2 |]

